icons/desktop/20/color-picker-20.svg

<svg width="20" height="20" viewBox="0 0 20 20" fill="none" xmlns="http://www.w3.org/2000/svg">
<path fill-rule="evenodd" clip-rule="evenodd" d="M12.8652 2.75337C14.1139 1.68648 15.9674 1.76372 17.126 2.92232L18.0801 3.87642C19.2389 5.03547 19.3148 6.88827 18.25 8.13618C17.657 8.83055 17.0341 9.53541 16.3828 10.2485L17.0176 10.8833C17.3593 11.225 17.3593 11.7789 17.0176 12.1206C16.6759 12.4622 16.122 12.4622 15.7803 12.1206L15.1875 11.5278C14.4008 12.3538 13.5759 13.1893 12.708 14.0268C10.9692 15.704 9.25668 17.2109 7.6084 18.559L7.60742 18.56C7.24964 18.8522 6.80974 19.0023 6.36035 19.0024H2.875C2.39189 19.0024 2.00023 18.6105 2 18.1274V14.642C2 14.191 2.15012 13.7516 2.44238 13.394L2.95605 12.7729C4.17061 11.3172 5.50792 9.81599 6.97559 8.29439C7.81274 7.42642 8.64699 6.60051 9.47266 5.81392L8.87891 5.22017C8.53721 4.87847 8.53723 4.3236 8.87891 3.98189C9.22062 3.64018 9.77548 3.64018 10.1172 3.98189L10.7529 4.61763C11.4657 3.96659 12.1711 3.34581 12.8652 2.75337ZM10.71 7.05122C9.89142 7.83015 9.06439 8.64866 8.23438 9.50923C6.59205 11.2119 5.11739 12.8881 3.79785 14.5014C3.76815 14.5378 3.75 14.5832 3.75 14.642V17.2524H6.36035C6.41837 17.2523 6.46406 17.2338 6.5 17.2045L7.1084 16.7026C8.53331 15.5138 10.0022 14.2042 11.4922 12.767C12.3526 11.9368 13.17 11.1083 13.9492 10.2895L10.71 7.05122Z" fill="black"/>
</svg>

<!-- This Source Code Form is subject to the terms of the Mozilla Public
   - License, v. 2.0. If a copy of the MPL was not distributed with this
   - file, You can obtain one at http://mozilla.org/MPL/2.0/. -->
<svg xmlns="http://www.w3.org/2000/svg" width="20" height="20" fill="context-fill" fill-opacity="context-fill-opacity" viewBox="0 0 20 20">
    <path fill-rule="evenodd" d="M12.865 2.753a3.14 3.14 0 0 1 4.261.17l.954.953a3.14 3.14 0 0 1 .17 4.26q-.89 1.043-1.867 2.113l.635.634a.875.875 0 1 1-1.238 1.238l-.592-.593a83 83 0 0 1-2.48 2.499 83 83 0 0 1-5.1 4.532v.001a1.97 1.97 0 0 1-1.248.442H2.875A.875.875 0 0 1 2 18.127v-3.485c0-.451.15-.89.442-1.248l.514-.621a84 84 0 0 1 6.517-6.96l-.594-.593a.876.876 0 0 1 1.238-1.238l.636.636a84 84 0 0 1 2.112-1.865M10.71 7.051a81 81 0 0 0-6.912 7.45.21.21 0 0 0-.048.141v2.61h2.61a.22.22 0 0 0 .14-.047l.608-.502a82 82 0 0 0 6.841-6.413z" clip-rule="evenodd" />
</svg>
